app/public/logos/ton.svg

<svg xmlns="http://www.w3.org/2000/svg" width="350pt" height="350pt" style="isolation:isolate" viewBox="0 0 350 350"><defs><clipPath id="a"><path d="M0 0h350v350H0z"/></clipPath></defs><g clip-path="url(#a)"><path d="M0 0h350v350H0z" style="fill:#0189cc"/><path fill="#FFF" fill-rule="evenodd" d="M92.866 55h164.541c6.288 0 11.528 1.048 17.817 4.192 7.336 3.144 11.528 8.384 13.624 12.577 0 0 0 1.048 1.048 1.048 3.144 5.24 5.24 11.528 5.24 18.864 0 6.288-1.048 12.577-5.24 18.865L186.141 288.712c-2.096 4.192-6.289 6.288-11.529 6.288-4.192 0-8.384-2.096-11.528-6.288L61.425 110.546c-2.097-4.192-6.289-9.432-6.289-17.817-1.048-7.336 1.048-13.624 4.192-19.912 3.145-6.289 8.385-11.529 15.721-13.625C81.337 55 88.673 55 92.866 55m69.17 25.153h-69.17c-4.193 0-6.289 0-7.337 1.048-2.096 1.048-3.144 2.096-4.192 4.192-1.048 1.048-1.048 3.144-1.048 5.24 0 1.048 1.048 2.096 3.144 6.288l78.603 136.245zm25.153 0v154.061l79.65-137.293c1.048-2.096 1.048-4.192 1.048-6.288s0-4.192-1.048-5.24-1.048-2.096-2.096-2.096l-1.048-1.048c-2.096-1.048-4.192-1.048-7.336-1.048h-69.17z"/></g></svg>

<?xml version="1.0" encoding="UTF-8" standalone="no"?><!-- Generator: Gravit.io --><svg xmlns="http://www.w3.org/2000/svg" xmlns:xlink="http://www.w3.org/1999/xlink" style="isolation:isolate" viewBox="0 0 350 350" width="350pt" height="350pt"><defs><clipPath id="_clipPath_gvHyIVFJ23aSjiRKqWgCWOHCVktpOaI6"><rect width="350" height="350"/></clipPath></defs><g clip-path="url(#_clipPath_gvHyIVFJ23aSjiRKqWgCWOHCVktpOaI6)"><rect width="350" height="350" style="fill:rgb(1,137,204)"/><g><path d=" M 92.866 55 L 257.407 55 C 263.695 55 268.935 56.048 275.224 59.192 C 282.56 62.336 286.752 67.576 288.848 71.769 C 288.848 71.769 288.848 72.817 289.896 72.817 C 293.04 78.057 295.136 84.345 295.136 91.681 C 295.136 97.969 294.088 104.258 289.896 110.546 C 289.896 110.546 289.896 110.546 289.896 110.546 L 186.141 288.712 C 184.045 292.904 179.852 295 174.612 295 C 170.42 295 166.228 292.904 163.084 288.712 L 61.425 110.546 C 61.425 110.546 61.425 110.546 61.425 110.546 C 59.328 106.354 55.136 101.114 55.136 92.729 C 54.088 85.393 56.184 79.105 59.328 72.817 C 62.473 66.528 67.713 61.288 75.049 59.192 C 81.337 55 88.673 55 92.866 55 Z  M 162.036 80.153 L 92.866 80.153 C 88.673 80.153 86.577 80.153 85.529 81.201 C 83.433 82.249 82.385 83.297 81.337 85.393 C 80.289 86.441 80.289 88.537 80.289 90.633 C 80.289 91.681 81.337 92.729 83.433 96.921 C 83.433 96.921 83.433 96.921 83.433 96.921 L 162.036 233.166 L 162.036 80.153 Z  M 187.189 80.153 L 187.189 234.214 L 266.839 96.921 C 267.887 94.825 267.887 92.729 267.887 90.633 C 267.887 88.537 267.887 86.441 266.839 85.393 C 265.791 84.345 265.791 83.297 264.743 83.297 C 264.743 83.297 263.695 82.249 263.695 82.249 C 261.599 81.201 259.503 81.201 256.359 81.201 L 187.189 81.201 L 187.189 80.153 Z " fill-rule="evenodd" fill="rgb(255,255,255)"/></g></g></svg>
